www/assets/icons/menu.svg

<svg xmlns="http://www.w3.org/2000/svg" width="24" height="24" viewBox="0 0 24 24" fill='currentColor'><path d="M3 18h18v-2H3zm0-5h18v-2H3zm0-7v2h18V6z"/></svg>

<svg width="24" height="24" viewBox="0 0 24 24" xmlns="http://www.w3.org/2000/svg" fill='currentColor'><path d="M3 18H21V16H3V18ZM3 13H21V11H3V13ZM3 6V8H21V6H3Z"/></svg>
